X:3776
T:Dans la ville de Nantes
C:trad.
M:3/8
L:1/8
Q:1/4=130
K:C
defd2e|c2A|defd2c|A3:|AGA c2c|d2d|cAF G2G|Ade|
|:f2d e2c Ade|f2de2c|1dde:|2d3||
W:
W:Dans la ville de Nantes
W:Il y a-t-un rosier
W:Qui ne donne de l'ombre
W:Rien qu'une fois l't.
W:
W:(refrain)
W:Je vous ai menti souvent
W:M'avez-vous toujours dit vrai 
W:
W:Toutes le filles de Nantes
W:Elles vont s'y promener
W:La plus jolie de toutes
W:Son coeur elle m'a donn
W:
W:Bonsoir, bonsoir la belle,
W:Je viens vous demander
W:La tant jolie ceinture
W:Que vous m'y promettez.
W:
W:Ma tant jolie ceinture
W:Je ne peux la donner
W:A un marchand de Nantes
W:On va m'y marier.
